rospo-icon-theme-classic-common/24x24/places/folder-red-git.svg

<svg height="24" width="24" xmlns="http://www.w3.org/2000/svg"><rect height="12" opacity=".2" rx="1" width="20" x="2" y="9.5"/><path d="m2 17c0 .554.446 1 1 1h18c .554 0 1-.446 1-1v-11c0-.554-.446-1-1-1h-10v-1c0-.554-.446-1-1-1h-7c-.554 0-1 .446-1 1" fill="#bf4b4b"/><rect height="12" opacity=".2" rx="1" width="20" x="2" y="8.5"/><rect fill="#e4e4e4" height="8" rx="1" width="16" x="4" y="7"/><rect fill="#e25252" height="12" rx="1" width="20" x="2" y="9"/><path d="m3 3c-.554 0-1 .446-1 1v .5c0-.554.446-1 1-1h7c .554 0 1 .446 1 1v-.5c0-.554-.446-1-1-1zm8 2v .5h10c .554 0 1 .446 1 1v-.5c0-.554-.446-1-1-1z" fill="#fff" opacity=".1"/><path d="m8.7165 10.361-.3555.356.9551.955a1.5 1.5 0 0 0 -.2774.867 1.5 1.5 0 0 0 1.2503 1.479v2.043a1.5 1.5 0 0 0 -1.2503 1.478 1.5 1.5 0 0 0 1.5003 1.5 1.5 1.5 0 0 0 1.5-1.5 1.5 1.5 0 0 0 -1.25-1.478v-2.043a1.5 1.5 0 0 0  .617-.256l.91.91a1.5 1.5 0 0 0 -.277.868 1.5 1.5 0 0 0 1.5 1.5 1.5 1.5 0 0 0 1.5-1.5 1.5 1.5 0 0 0 -1.5-1.5 1.5 1.5 0 0 0 -.867.277l-.911-.91a1.5 1.5 0 0 0  .278-.867 1.5 1.5 0 0 0 -1.5-1.5 1.5 1.5 0 0 0 -.8676.277l-.955-.955z" fill="#4f1d1d"/></svg>

<svg xmlns="http://www.w3.org/2000/svg" width="24" height="24" version="1">
 <rect style="opacity:0.2" width="20" height="12" x="2" y="9.5" rx="1" ry="1"/>
 <path style="fill:#bf4b4b" d="M 2,17 C 2,17.554 2.446,18 3,18 H 21 C 21.554,18 22,17.554 22,17 V 6 C 22,5.446 21.554,5 21,5 H 11 V 4 C 11,3.446 10.554,3 10,3 H 3 C 2.446,3 2,3.446 2,4"/>
 <rect style="opacity:0.2" width="20" height="12" x="2" y="8.5" rx="1" ry="1"/>
 <rect style="fill:#dcdcdc" width="16" height="8" x="4" y="7" rx="1" ry="1"/>
 <rect style="fill:#e25252" width="20" height="12" x="2" y="9" rx="1" ry="1"/>
 <path style="opacity:0.1;fill:#ffffff" d="M 3,3 C 2.446,3 2,3.446 2,4 V 4.5 C 2,3.946 2.446,3.5 3,3.5 H 10 C 10.554,3.5 11,3.946 11,4.5 V 4 C 11,3.446 10.554,3 10,3 Z M 11,5 V 5.5 H 21 C 21.554,5.5 22,5.946 22,6.5 V 6 C 22,5.446 21.554,5 21,5 Z"/>
 <path style="fill:#4f1d1d" d="M 8.7165,10.361 8.361,10.717 9.3161,11.672 A 1.5,1.5 0 0 0 9.0387,12.539 1.5,1.5 0 0 0 10.289,14.018 V 16.061 A 1.5,1.5 0 0 0 9.0387,17.539 1.5,1.5 0 0 0 10.539,19.039 1.5,1.5 0 0 0 12.039,17.539 1.5,1.5 0 0 0 10.789,16.061 V 14.018 A 1.5,1.5 0 0 0 11.406,13.762 L 12.316,14.672 A 1.5,1.5 0 0 0 12.039,15.54 1.5,1.5 0 0 0 13.539,17.04 1.5,1.5 0 0 0 15.039,15.54 1.5,1.5 0 0 0 13.539,14.04 1.5,1.5 0 0 0 12.672,14.317 L 11.761,13.407 A 1.5,1.5 0 0 0 12.039,12.54 1.5,1.5 0 0 0 10.539,11.04 1.5,1.5 0 0 0 9.6714,11.317 L 8.7164,10.362 Z"/>
</svg>
